img/intro/5.svg

<svg width="288" height="288" viewBox="0 0 288 288" fill="none" xmlns="http://www.w3.org/2000/svg">
<g clip-path="url(#clip0_273_66773)">
<g opacity="0.16" filter="url(#filter0_f_273_66773)">
<path d="M150.331 68.9954C156.105 67.261 162.179 70.5388 163.899 76.3166L188.643 159.438C190.413 165.385 186.88 171.622 180.87 173.16L97.696 194.45C92.0867 195.886 86.3431 192.687 84.609 187.163L59.6958 107.789C57.8716 101.977 61.154 95.7853 66.988 94.0327L150.331 68.9954Z" fill="#26255F"/>
</g>
<g style="mix-blend-mode:lighten" filter="url(#filter1_f_273_66773)">
<rect width="109.016" height="109.016" rx="10.9153" transform="matrix(0.285308 0.958436 -0.957718 0.287709 184.544 69.7295)" fill="url(#paint0_linear_273_66773)" fill-opacity="0.6"/>
</g>
<path d="M168.141 79.0662C173.773 77.411 179.694 80.5097 181.544 86.0803L209.71 170.9C211.689 176.86 208.246 183.269 202.184 184.91L116.403 208.127C110.777 209.649 104.959 206.48 103.187 200.928L76.6041 117.637C74.738 111.79 78.0546 105.543 83.9432 103.812L168.141 79.0662Z" fill="url(#paint1_linear_273_66773)"/>
<path d="M171.313 75.9046C177.086 74.1702 183.161 77.448 184.881 83.2258L209.624 166.347C211.395 172.294 207.862 178.531 201.851 180.07L118.677 201.359C113.068 202.795 107.325 199.597 105.59 194.072L80.6772 114.698C78.853 108.887 82.1355 102.694 87.9695 100.942L171.313 75.9046Z" fill="url(#paint2_linear_273_66773)"/>
</g>
<defs>
<filter id="filter0_f_273_66773" x="54.7279" y="64.0677" width="138.836" height="135.188" filterUnits="userSpaceOnUse" color-interpolation-filters="sRGB">
<feFlood flood-opacity="0" result="BackgroundImageFix"/>
<feBlend mode="normal" in="SourceGraphic" in2="BackgroundImageFix" result="shape"/>
<feGaussianBlur stdDeviation="2.23178" result="effect1_foregroundBlur_273_66773"/>
</filter>
<filter id="filter1_f_273_66773" x="63.0416" y="52.6525" width="169.702" height="170.004" filterUnits="userSpaceOnUse" color-interpolation-filters="sRGB">
<feFlood flood-opacity="0" result="BackgroundImageFix"/>
<feBlend mode="normal" in="SourceGraphic" in2="BackgroundImageFix" result="shape"/>
<feGaussianBlur stdDeviation="9.87665" result="effect1_foregroundBlur_273_66773"/>
</filter>
<linearGradient id="paint0_linear_273_66773" x1="103.83" y1="2.79869" x2="-5.53577" y2="90.9458" gradientUnits="userSpaceOnUse">
<stop stop-color="#0073FF"/>
<stop offset="1" stop-color="#BB6DF5"/>
</linearGradient>
<linearGradient id="paint1_linear_273_66773" x1="166.029" y1="134.6" x2="88.3959" y2="152.02" gradientUnits="userSpaceOnUse">
<stop stop-color="#7ACDF3"/>
<stop offset="1" stop-color="#228EC7"/>
</linearGradient>
<linearGradient id="paint2_linear_273_66773" x1="232.577" y1="76.9437" x2="94.5964" y2="212.213" gradientUnits="userSpaceOnUse">
<stop stop-color="#80D4F2"/>
<stop offset="1" stop-color="#3DB4E1"/>
</linearGradient>
<clipPath id="clip0_273_66773">
<rect width="212.019" height="212.677" fill="white" transform="translate(100.994) rotate(28.3509)"/>
</clipPath>
</defs>
</svg>

<svg width="288" height="288" fill="none" xmlns="http://www.w3.org/2000/svg"><g clip-path="url(#a)"><g opacity=".16" filter="url(#b)"><path d="M150.331 68.995a10.882 10.882 0 0 1 13.568 7.322l24.744 83.121c1.77 5.947-1.763 12.184-7.773 13.722l-83.174 21.29a10.882 10.882 0 0 1-13.087-7.287l-24.913-79.374c-1.824-5.812 1.458-12.004 7.292-13.756l83.343-25.038Z" fill="#26255F"/></g><g style="mix-blend-mode:lighten" filter="url(#c)"><rect width="109.016" height="109.016" rx="10.915" transform="rotate(73.423 45.517 158.606) skewX(.144)" fill="url(#d)" fill-opacity=".6"/></g><path d="M168.141 79.066a10.882 10.882 0 0 1 13.403 7.014l28.166 84.82c1.979 5.96-1.464 12.369-7.526 14.01l-85.781 23.217a10.882 10.882 0 0 1-13.216-7.199l-26.583-83.291c-1.866-5.847 1.45-12.094 7.34-13.825l84.197-24.746Z" fill="url(#e)"/><path d="M171.313 75.905a10.883 10.883 0 0 1 13.568 7.32l24.743 83.122c1.771 5.947-1.762 12.184-7.773 13.723l-83.174 21.289a10.882 10.882 0 0 1-13.087-7.287l-24.913-79.374c-1.824-5.811 1.458-12.004 7.292-13.756l83.344-25.037Z" fill="url(#f)"/></g><defs><linearGradient id="d" x1="103.83" y1="2.799" x2="-5.536" y2="90.946" gradientUnits="userSpaceOnUse"><stop stop-color="#0073FF"/><stop offset="1" stop-color="#BB6DF5"/></linearGradient><linearGradient id="e" x1="166.029" y1="134.6" x2="88.396" y2="152.02" gradientUnits="userSpaceOnUse"><stop stop-color="#7ACDF3"/><stop offset="1" stop-color="#228EC7"/></linearGradient><linearGradient id="f" x1="232.577" y1="76.944" x2="94.596" y2="212.213" gradientUnits="userSpaceOnUse"><stop stop-color="#80D4F2"/><stop offset="1" stop-color="#3DB4E1"/></linearGradient><filter id="b" x="54.728" y="64.068" width="138.836" height="135.188" filterUnits="userSpaceOnUse" color-interpolation-filters="sRGB"><feFlood flood-opacity="0" result="BackgroundImageFix"/><feBlend in="SourceGraphic" in2="BackgroundImageFix" result="shape"/><feGaussianBlur stdDeviation="2.232" result="effect1_foregroundBlur_273_66773"/></filter><filter id="c" x="63.042" y="52.653" width="169.702" height="170.004" filterUnits="userSpaceOnUse" color-interpolation-filters="sRGB"><feFlood flood-opacity="0" result="BackgroundImageFix"/><feBlend in="SourceGraphic" in2="BackgroundImageFix" result="shape"/><feGaussianBlur stdDeviation="9.877" result="effect1_foregroundBlur_273_66773"/></filter><clipPath id="a"><path fill="#fff" transform="rotate(28.351 50.497 199.922)" d="M0 0h212.019v212.677H0z"/></clipPath></defs></svg>
